public/libs/tinymce_5/js/tinymce/plugins/exeimage/img/exeimage.svg

<svg height="24" width="24" xmlns="http://www.w3.org/2000/svg"><path d="m12 16-5-5 1.4-1.45 2.6 2.6v-8.15h2v8.15l2.6-2.6 1.4 1.45zm-6 4q-.825 0-1.412-.587-.588-.588-.588-1.413v-3h2v3q0 0 0 0h12q0 0 0 0v-3h2v3q0 .825-.587 1.413-.588.587-1.413.587z"/></svg>

<svg xmlns="http://www.w3.org/2000/svg" height="24" width="24"><path d="M12 16 7 11 8.4 9.55 11 12.15V4H13V12.15L15.6 9.55L17 11ZM6 20Q5.175 20 4.588 19.413Q4 18.825 4 18V15H6V18Q6 18 6 18Q6 18 6 18H18Q18 18 18 18Q18 18 18 18V15H20V18Q20 18.825 19.413 19.413Q18.825 20 18 20Z"/></svg>
